X: 1
T:Loch Etive-side
M:C|
L:1/8
Q:80
C:
S:Slow March
K:HP
|: {g}G3/2A/2{g}B/2d3/2|
{g}f3/2e/2{A}e/2d3/2|
{g}G3/2A/2{g}B/2d3/2|  !
{g}e3/2a/2f/2{g}e3/2|
{g}G3/2A/2{g}B/2d3/2|
{g}f3/2e/2{A}e/2f3/2|  !
a3/2{g}a/2f/2{g}d3/2|
{g}B3/2{G}A/2{g}B/2d3/2:| |:
{g}A3/2B/2{G}A3/2B/2|  !
{g}d3/2e/2{g}d/2c3/2|
{g}B/2e3/2{A}e3/2f/2|
a3/2g/2f/2{g}e3/2|  !
{g}A3/2B/2{G}A3/2B/2|
{g}d3/2e/2{g}f/2g3/2|
a3/2{g}a/2f/2{g}d3/2|  !
{g}B3/2{G}A/2{g}B/2d3/2:|
